!!!COM: Johann Wilhelm Hey
!!!OTL: Do You Know How Many Stars There Are?
!!!OTL@@DE: Weißt du wieviel Sternlein stehen?
!!!ARE: Deutschland
**kern
*clefG2
*k[b-]
*M3/4
*MM 45
{8f
8g
=1
4a
4a
8b-
8g
=2
8dd
8cc
4cc
8a}
{8cc
=3
8cc
8b-
4b-
8cc
8b-
=4
2a}
{8f
8g
=5
4a
4a
8b-
8g
=6
8dd
8cc
4cc}
{8a
8cc
=7
8cc
8b-
4b-
8cc
8b-
=8
2a}
{8cc
8a
=9
8a
8g
4g
8dd
8b-
=10
8b-
8a
4a}
{8cc
8a
=11
8a
8g
4g
8dd
8b-
=12
8b-
8a}
{4a
8f
8g
=13
4a
4a
8b-
8g
=14
(4dd
4cc)}
{8a
8cc
=15
8cc
8b-
4b-
8cc
8b-
=16
2.a}
4r
==
*-